Exercise 1/FHS-SW-Blatt1-Richard-Fussenegger-3.svg

<svg width="1658pt" height="446pt" viewBox="0.00 0.00 1658.00 445.71" xmlns="http://www.w3.org/2000/svg" xmlns:xlink="http://www.w3.org/1999/xlink"><g class="graph" transform="translate(4 441.711)"><title>dotfile</title><polygon fill="#fff" stroke="#fff" points="-4,5 -4,-441.711 1655,-441.711 1655,5 -4,5"/><g class="node"><title>https://commons.wikimedia.org/wiki/File:Kunsthaus_Bregenz.jpg</title><a xlink:href="https://commons.wikimedia.org/wiki/File:Kunsthaus_Bregenz.jpg" xlink:title="https://commons.wikimedia.org/wiki/File:Kunsthaus_Bregenz.jpg"><ellipse stroke="#000" cx="236" cy="-214.711" rx="235.77" ry="18" fill="none"/><text text-anchor="middle" x="236" y="-212.211" font-family="'Courier New'" font-size="10" fill="#00f">https://commons.wikimedia.org/wiki/File:Kunsthaus_Bregenz.jpg</text></a></g><g class="node"><title>http://richard.fussenegger.info/FHS-SW-Blatt1-Richard-Fussenegger-2.rdf#DigitalPhoto</title><a xlink:href="http://richard.fussenegger.info/FHS-SW-Blatt1-Richard-Fussenegger-2.rdf#DigitalPhoto" xlink:title="http://richard.fussenegger.info/FHS-SW-Blatt1-Richard-Fussenegger-2.rdf#DigitalPhoto"><ellipse stroke="#000" cx="1329" cy="-403.711" rx="320.22" ry="18" fill="none"/><text text-anchor="middle" x="1329" y="-401.211" font-family="'Courier New'" font-size="10" fill="#00f">http://richard.fussenegger.info/FHS-SW-Blatt1-Richard-Fussenegger-2.rdf#DigitalPhoto</text></a></g><g class="edge"><title>https://commons.wikimedia.org/wiki/File:Kunsthaus_Bregenz.jpg-&gt;http://richard.fussenegger.info/FHS-SW-Blatt1-Richard-Fussenegger-2.rdf#DigitalPhoto</title><a xlink:href="http://www.w3.org/1999/02/22-rdf-syntax-ns#type" xlink:title="http://www.w3.org/1999/02/22-rdf-syntax-ns#type"><path stroke="#006400" d="M257.668-232.748c41.777-33.536 137.724-104.648 232.332-132.963 223.243-66.815 494.735-65.017 667.23-54.234" fill="none"/><polygon fill="#006400" stroke="#006400" points="1157.66,-423.424 1167.42,-419.29 1157.22,-416.439 1157.66,-423.424"/></a><a xlink:href="http://www.w3.org/1999/02/22-rdf-syntax-ns#type" xlink:title="http://www.w3.org/1999/02/22-rdf-syntax-ns#type"><text text-anchor="middle" x="740" y="-428.711" font-family="'Courier New'" font-size="10" fill="#f00">http://www.w3.org/1999/02/22-rdf-syntax-ns#type</text></a></g><g class="node"><title>Literal_1</title><polygon stroke="#000" points="1388,-367.711 1270,-367.711 1270,-331.711 1388,-331.711 1388,-367.711" fill="none"/><text text-anchor="middle" x="1329" y="-347.211" font-family="'Courier New'" font-size="10" fill="#00f">Kunsthaus Bregenz</text></g><g class="edge"><title>https://commons.wikimedia.org/wiki/File:Kunsthaus_Bregenz.jpg-&gt;Literal_1</title><a xlink:href="http://richard.fussenegger.info/FHS-SW-Blatt1-Richard-Fussenegger-2.rdf#title" xlink:title="http://richard.fussenegger.info/FHS-SW-Blatt1-Richard-Fussenegger-2.rdf#title"><path stroke="#006400" d="M277.775-232.494c49.598-20.212 135.299-52.325 212.225-67.217 281.2-54.439 624.44-54.791 769.25-51.994" fill="none"/><polygon fill="#006400" stroke="#006400" points="1259.41,-355.202 1269.33,-351.498 1259.26,-348.204 1259.41,-355.202"/></a><a xlink:href="http://richard.fussenegger.info/FHS-SW-Blatt1-Richard-Fussenegger-2.rdf#title" xlink:title="http://richard.fussenegger.info/FHS-SW-Blatt1-Richard-Fussenegger-2.rdf#title"><text text-anchor="middle" x="740" y="-352.711" font-family="'Courier New'" font-size="10" fill="#f00">http://richard.fussenegger.info/FHS-SW-Blatt1-Richard-Fussenegger-2.rdf#title</text></a></g><g class="node"><title>Literal_2</title><polygon stroke="#000" points="1439,-313.711 1219,-313.711 1219,-277.711 1439,-277.711 1439,-313.711" fill="none"/><text text-anchor="middle" x="1329" y="-293.211" font-family="'Courier New'" font-size="10" fill="#00f">Das berühmte Kunsthaus in Bregenz.</text></g><g class="edge"><title>https://commons.wikimedia.org/wiki/File:Kunsthaus_Bregenz.jpg-&gt;Literal_2</title><a xlink:href="http://richard.fussenegger.info/FHS-SW-Blatt1-Richard-Fussenegger-2.rdf#description" xlink:title="http://richard.fussenegger.info/FHS-SW-Blatt1-Richard-Fussenegger-2.rdf#description"><path stroke="#006400" d="M339.274-230.901c46.034-6.711 100.989-14.028 150.726-18.81 254.949-24.513 554.83-37.039 718.09-42.491" fill="none"/><polygon fill="#006400" stroke="#006400" points="1208.06,-295.702 1218.17,-292.535 1208.29,-288.706 1208.06,-295.702"/></a><a xlink:href="http://richard.fussenegger.info/FHS-SW-Blatt1-Richard-Fussenegger-2.rdf#description" xlink:title="http://richard.fussenegger.info/FHS-SW-Blatt1-Richard-Fussenegger-2.rdf#description"><text text-anchor="middle" x="740" y="-286.711" font-family="'Courier New'" font-size="10" fill="#f00">http://richard.fussenegger.info/FHS-SW-Blatt1-Richard-Fussenegger-2.rdf#description</text></a></g><g class="node"><title>Literal_3</title><polygon stroke="#000" points="1394,-259.711 1264,-259.711 1264,-223.711 1394,-223.711 1394,-259.711" fill="none"/><text text-anchor="middle" x="1329" y="-239.211" font-family="'Courier New'" font-size="10" fill="#00f">Florian Glöcklhofer</text></g><g class="edge"><title>https://commons.wikimedia.org/wiki/File:Kunsthaus_Bregenz.jpg-&gt;Literal_3</title><a xlink:href="http://richard.fussenegger.info/FHS-SW-Blatt1-Richard-Fussenegger-2.rdf#creator" xlink:title="http://richard.fussenegger.info/FHS-SW-Blatt1-Richard-Fussenegger-2.rdf#creator"><path stroke="#006400" d="M460.814-220.265c247.162-6.105 630.626-15.578 792.256-19.571" fill="none"/><polygon fill="#006400" stroke="#006400" points="1253.31,-243.342 1263.39,-240.091 1253.48,-236.345 1253.31,-243.342"/></a><a xlink:href="http://richard.fussenegger.info/FHS-SW-Blatt1-Richard-Fussenegger-2.rdf#creator" xlink:title="http://richard.fussenegger.info/FHS-SW-Blatt1-Richard-Fussenegger-2.rdf#creator"><text text-anchor="middle" x="740" y="-236.711" font-family="'Courier New'" font-size="10" fill="#f00">http://richard.fussenegger.info/FHS-SW-Blatt1-Richard-Fussenegger-2.rdf#creator</text></a></g><g class="node"><title>Literal_4</title><polygon stroke="#000" points="1385,-205.711 1273,-205.711 1273,-169.711 1385,-169.711 1385,-205.711" fill="none"/><text text-anchor="middle" x="1329" y="-185.211" font-family="'Courier New'" font-size="10" fill="#00f">2004-08-28T13:33</text></g><g class="edge"><title>https://commons.wikimedia.org/wiki/File:Kunsthaus_Bregenz.jpg-&gt;Literal_4</title><a xlink:href="http://richard.fussenegger.info/FHS-SW-Blatt1-Richard-Fussenegger-2.rdf#date" xlink:title="http://richard.fussenegger.info/FHS-SW-Blatt1-Richard-Fussenegger-2.rdf#date"><path stroke="#006400" d="M438.745-205.491c17.335.655 34.601 1.26 51.255 1.78 287.139 8.954 629.72 13.607 771.97 15.272" fill="none"/><polygon fill="#006400" stroke="#006400" points="1262.31,-191.935 1272.27,-188.319 1262.23,-184.936 1262.31,-191.935"/></a><a xlink:href="http://richard.fussenegger.info/FHS-SW-Blatt1-Richard-Fussenegger-2.rdf#date" xlink:title="http://richard.fussenegger.info/FHS-SW-Blatt1-Richard-Fussenegger-2.rdf#date"><text text-anchor="middle" x="740" y="-207.711" font-family="'Courier New'" font-size="10" fill="#f00">http://richard.fussenegger.info/FHS-SW-Blatt1-Richard-Fussenegger-2.rdf#date</text></a></g><g class="node"><title>http://sws.geonames.org/2781503</title><a xlink:href="http://sws.geonames.org/2781503" xlink:title="http://sws.geonames.org/2781503"><ellipse stroke="#000" cx="1329" cy="-133.711" rx="124.964" ry="18" fill="none"/><text text-anchor="middle" x="1329" y="-131.211" font-family="'Courier New'" font-size="10" fill="#00f">http://sws.geonames.org/2781503</text></a></g><g class="edge"><title>https://commons.wikimedia.org/wiki/File:Kunsthaus_Bregenz.jpg-&gt;http://sws.geonames.org/2781503</title><a xlink:href="http://richard.fussenegger.info/FHS-SW-Blatt1-Richard-Fussenegger-2.rdf#location" xlink:title="http://richard.fussenegger.info/FHS-SW-Blatt1-Richard-Fussenegger-2.rdf#location"><path stroke="#006400" d="M326.505-198.039c48.353 8.294 108.986 17.72 163.495 23.328 247.775 25.489 538.39 35.217 704.39 38.869" fill="none"/><polygon fill="#006400" stroke="#006400" points="1194.73,-139.336 1204.66,-135.621 1194.58,-132.338 1194.73,-139.336"/></a><a xlink:href="http://richard.fussenegger.info/FHS-SW-Blatt1-Richard-Fussenegger-2.rdf#location" xlink:title="http://richard.fussenegger.info/FHS-SW-Blatt1-Richard-Fussenegger-2.rdf#location"><text text-anchor="middle" x="740" y="-178.711" font-family="'Courier New'" font-size="10" fill="#f00">http://richard.fussenegger.info/FHS-SW-Blatt1-Richard-Fussenegger-2.rdf#location</text></a></g><g class="node"><title>http://www.dbpedialite.org/things/3790493</title><a xlink:href="http://www.dbpedialite.org/things/3790493" xlink:title="http://www.dbpedialite.org/things/3790493"><ellipse stroke="#000" cx="1329" cy="-79.711" rx="161.899" ry="18" fill="none"/><text text-anchor="middle" x="1329" y="-77.211" font-family="'Courier New'" font-size="10" fill="#00f">http://www.dbpedialite.org/things/3790493</text></a></g><g class="edge"><title>https://commons.wikimedia.org/wiki/File:Kunsthaus_Bregenz.jpg-&gt;http://www.dbpedialite.org/things/3790493</title><a xlink:href="http://richard.fussenegger.info/FHS-SW-Blatt1-Richard-Fussenegger-2.rdf#camera" xlink:title="http://richard.fussenegger.info/FHS-SW-Blatt1-Richard-Fussenegger-2.rdf#camera"><path stroke="#006400" d="M275.035-196.902c49.029 21.429 136.284 56.482 214.965 72.191 230.014 45.921 502.085 51.909 672.63 50.011" fill="none"/><polygon fill="#006400" stroke="#006400" points="1162.66,-78.2006 1172.7,-74.8226 1162.75,-71.2011 1162.66,-78.2006"/></a><a xlink:href="http://richard.fussenegger.info/FHS-SW-Blatt1-Richard-Fussenegger-2.rdf#camera" xlink:title="http://richard.fussenegger.info/FHS-SW-Blatt1-Richard-Fussenegger-2.rdf#camera"><text text-anchor="middle" x="740" y="-128.711" font-family="'Courier New'" font-size="10" fill="#f00">http://richard.fussenegger.info/FHS-SW-Blatt1-Richard-Fussenegger-2.rdf#camera</text></a></g><g class="node"><title>Literal_5</title><polygon stroke="#000" points="1475,-43.7113 1183,-43.7113 1183,-7.71129 1475,-7.71129 1475,-43.7113" fill="none"/><text text-anchor="middle" x="1329" y="-23.211" font-family="'Courier New'" font-size="10" fill="#00f">Exposure time:1/500 sec (0.002);F-number:f/3.5</text></g><g class="edge"><title>https://commons.wikimedia.org/wiki/File:Kunsthaus_Bregenz.jpg-&gt;Literal_5</title><a xlink:href="http://richard.fussenegger.info/FHS-SW-Blatt1-Richard-Fussenegger-2.rdf#details" xlink:title="http://richard.fussenegger.info/FHS-SW-Blatt1-Richard-Fussenegger-2.rdf#details"><path stroke="#006400" d="M256.894-196.563c41.208 34.508 137.297 108.734 233.106 137.852 229.568 69.769 510.77 63.463 682.3 50.066" fill="none"/><polygon fill="#006400" stroke="#006400" points="1172.17,-12.1459 1182.42,-9.45354 1172.73,-5.16812 1172.17,-12.1459"/></a><a xlink:href="http://richard.fussenegger.info/FHS-SW-Blatt1-Richard-Fussenegger-2.rdf#details" xlink:title="http://richard.fussenegger.info/FHS-SW-Blatt1-Richard-Fussenegger-2.rdf#details"><text text-anchor="middle" x="740" y="-62.711" font-family="'Courier New'" font-size="10" fill="#f00">http://richard.fussenegger.info/FHS-SW-Blatt1-Richard-Fussenegger-2.rdf#details</text></a></g></g></svg>

<?xml version="1.0" encoding="UTF-8" standalone="no"?>
<!DOCTYPE svg PUBLIC "-//W3C//DTD SVG 1.1//EN" "http://www.w3.org/Graphics/SVG/1.1/DTD/svg11.dtd">
<!-- Generated by graphviz version 2.26.3 (20100126.1600)
 -->
<!-- Title: dotfile Pages: 1 -->
<svg width="1658pt" height="446pt" viewBox="0.00 0.00 1658.00 445.71" xmlns="http://www.w3.org/2000/svg" xmlns:xlink="http://www.w3.org/1999/xlink">
<g id="graph1" class="graph" transform="scale(1 1) rotate(0) translate(4 441.711)">
<title>dotfile</title>
<polygon fill="white" stroke="white" points="-4,5 -4,-441.711 1655,-441.711 1655,5 -4,5"/>
<!-- https://commons.wikimedia.org/wiki/File:Kunsthaus_Bregenz.jpg -->
<g id="node1" class="node"><title>https://commons.wikimedia.org/wiki/File:Kunsthaus_Bregenz.jpg</title>
<a xlink:href="https://commons.wikimedia.org/wiki/File:Kunsthaus_Bregenz.jpg" xlink:title="https://commons.wikimedia.org/wiki/File:Kunsthaus_Bregenz.jpg">
<ellipse fill="none" stroke="black" cx="236" cy="-214.711" rx="235.77" ry="18"/>
<text text-anchor="middle" x="236" y="-212.211" font-family="Courier,monospace" font-size="10.00" fill="blue">https://commons.wikimedia.org/wiki/File:Kunsthaus_Bregenz.jpg</text>
</a>
</g>
<!-- http://richard.fussenegger.info/FHS&#45;SW&#45;Blatt1&#45;Richard&#45;Fussenegger&#45;2.rdf#DigitalPhoto -->
<g id="node3" class="node"><title>http://richard.fussenegger.info/FHS-SW-Blatt1-Richard-Fussenegger-2.rdf#DigitalPhoto</title>
<a xlink:href="http://richard.fussenegger.info/FHS-SW-Blatt1-Richard-Fussenegger-2.rdf#DigitalPhoto" xlink:title="http://richard.fussenegger.info/FHS-SW-Blatt1-Richard-Fussenegger-2.rdf#DigitalPhoto">
<ellipse fill="none" stroke="black" cx="1329" cy="-403.711" rx="320.22" ry="18"/>
<text text-anchor="middle" x="1329" y="-401.211" font-family="Courier,monospace" font-size="10.00" fill="blue">http://richard.fussenegger.info/FHS-SW-Blatt1-Richard-Fussenegger-2.rdf#DigitalPhoto</text>
</a>
</g>
<!-- https://commons.wikimedia.org/wiki/File:Kunsthaus_Bregenz.jpg&#45;&gt;http://richard.fussenegger.info/FHS&#45;SW&#45;Blatt1&#45;Richard&#45;Fussenegger&#45;2.rdf#DigitalPhoto -->
<g id="edge2" class="edge"><title>https://commons.wikimedia.org/wiki/File:Kunsthaus_Bregenz.jpg-&gt;http://richard.fussenegger.info/FHS-SW-Blatt1-Richard-Fussenegger-2.rdf#DigitalPhoto</title>
<a xlink:href="http://www.w3.org/1999/02/22-rdf-syntax-ns#type" xlink:title="http://www.w3.org/1999/02/22-rdf-syntax-ns#type">
<path fill="none" stroke="darkgreen" d="M257.668,-232.748C299.445,-266.284 395.392,-337.396 490,-365.711 713.243,-432.526 984.735,-430.728 1157.23,-419.945"/>
<polygon fill="darkgreen" stroke="darkgreen" points="1157.66,-423.424 1167.42,-419.29 1157.22,-416.439 1157.66,-423.424"/>
</a>
<a xlink:href="http://www.w3.org/1999/02/22-rdf-syntax-ns#type" xlink:title="http://www.w3.org/1999/02/22-rdf-syntax-ns#type">
<text text-anchor="middle" x="740" y="-428.711" font-family="Courier,monospace" font-size="10.00" fill="red">http://www.w3.org/1999/02/22-rdf-syntax-ns#type</text>
</a>
</g>
<!-- Literal_1 -->
<g id="node5" class="node"><title>Literal_1</title>
<polygon fill="none" stroke="black" points="1388,-367.711 1270,-367.711 1270,-331.711 1388,-331.711 1388,-367.711"/>
<text text-anchor="middle" x="1329" y="-347.211" font-family="Courier,monospace" font-size="10.00" fill="blue">Kunsthaus Bregenz</text>
</g>
<!-- https://commons.wikimedia.org/wiki/File:Kunsthaus_Bregenz.jpg&#45;&gt;Literal_1 -->
<g id="edge4" class="edge"><title>https://commons.wikimedia.org/wiki/File:Kunsthaus_Bregenz.jpg-&gt;Literal_1</title>
<a xlink:href="http://richard.fussenegger.info/FHS-SW-Blatt1-Richard-Fussenegger-2.rdf#title" xlink:title="http://richard.fussenegger.info/FHS-SW-Blatt1-Richard-Fussenegger-2.rdf#title">
<path fill="none" stroke="darkgreen" d="M277.775,-232.494C327.373,-252.706 413.074,-284.819 490,-299.711 771.2,-354.15 1114.44,-354.502 1259.25,-351.705"/>
<polygon fill="darkgreen" stroke="darkgreen" points="1259.41,-355.202 1269.33,-351.498 1259.26,-348.204 1259.41,-355.202"/>
</a>
<a xlink:href="http://richard.fussenegger.info/FHS-SW-Blatt1-Richard-Fussenegger-2.rdf#title" xlink:title="http://richard.fussenegger.info/FHS-SW-Blatt1-Richard-Fussenegger-2.rdf#title">
<text text-anchor="middle" x="740" y="-352.711" font-family="Courier,monospace" font-size="10.00" fill="red">http://richard.fussenegger.info/FHS-SW-Blatt1-Richard-Fussenegger-2.rdf#title</text>
</a>
</g>
<!-- Literal_2 -->
<g id="node7" class="node"><title>Literal_2</title>
<polygon fill="none" stroke="black" points="1439,-313.711 1219,-313.711 1219,-277.711 1439,-277.711 1439,-313.711"/>
<text text-anchor="middle" x="1329" y="-293.211" font-family="Courier,monospace" font-size="10.00" fill="blue">Das berühmte Kunsthaus in Bregenz.</text>
</g>
<!-- https://commons.wikimedia.org/wiki/File:Kunsthaus_Bregenz.jpg&#45;&gt;Literal_2 -->
<g id="edge6" class="edge"><title>https://commons.wikimedia.org/wiki/File:Kunsthaus_Bregenz.jpg-&gt;Literal_2</title>
<a xlink:href="http://richard.fussenegger.info/FHS-SW-Blatt1-Richard-Fussenegger-2.rdf#description" xlink:title="http://richard.fussenegger.info/FHS-SW-Blatt1-Richard-Fussenegger-2.rdf#description">
<path fill="none" stroke="darkgreen" d="M339.274,-230.901C385.308,-237.612 440.263,-244.929 490,-249.711 744.949,-274.224 1044.83,-286.75 1208.09,-292.202"/>
<polygon fill="darkgreen" stroke="darkgreen" points="1208.06,-295.702 1218.17,-292.535 1208.29,-288.706 1208.06,-295.702"/>
</a>
<a xlink:href="http://richard.fussenegger.info/FHS-SW-Blatt1-Richard-Fussenegger-2.rdf#description" xlink:title="http://richard.fussenegger.info/FHS-SW-Blatt1-Richard-Fussenegger-2.rdf#description">
<text text-anchor="middle" x="740" y="-286.711" font-family="Courier,monospace" font-size="10.00" fill="red">http://richard.fussenegger.info/FHS-SW-Blatt1-Richard-Fussenegger-2.rdf#description</text>
</a>
</g>
<!-- Literal_3 -->
<g id="node9" class="node"><title>Literal_3</title>
<polygon fill="none" stroke="black" points="1394,-259.711 1264,-259.711 1264,-223.711 1394,-223.711 1394,-259.711"/>
<text text-anchor="middle" x="1329" y="-239.211" font-family="Courier,monospace" font-size="10.00" fill="blue">Florian Glöcklhofer</text>
</g>
<!-- https://commons.wikimedia.org/wiki/File:Kunsthaus_Bregenz.jpg&#45;&gt;Literal_3 -->
<g id="edge8" class="edge"><title>https://commons.wikimedia.org/wiki/File:Kunsthaus_Bregenz.jpg-&gt;Literal_3</title>
<a xlink:href="http://richard.fussenegger.info/FHS-SW-Blatt1-Richard-Fussenegger-2.rdf#creator" xlink:title="http://richard.fussenegger.info/FHS-SW-Blatt1-Richard-Fussenegger-2.rdf#creator">
<path fill="none" stroke="darkgreen" d="M460.814,-220.265C707.976,-226.37 1091.44,-235.843 1253.07,-239.836"/>
<polygon fill="darkgreen" stroke="darkgreen" points="1253.31,-243.342 1263.39,-240.091 1253.48,-236.345 1253.31,-243.342"/>
</a>
<a xlink:href="http://richard.fussenegger.info/FHS-SW-Blatt1-Richard-Fussenegger-2.rdf#creator" xlink:title="http://richard.fussenegger.info/FHS-SW-Blatt1-Richard-Fussenegger-2.rdf#creator">
<text text-anchor="middle" x="740" y="-236.711" font-family="Courier,monospace" font-size="10.00" fill="red">http://richard.fussenegger.info/FHS-SW-Blatt1-Richard-Fussenegger-2.rdf#creator</text>
</a>
</g>
<!-- Literal_4 -->
<g id="node11" class="node"><title>Literal_4</title>
<polygon fill="none" stroke="black" points="1385,-205.711 1273,-205.711 1273,-169.711 1385,-169.711 1385,-205.711"/>
<text text-anchor="middle" x="1329" y="-185.211" font-family="Courier,monospace" font-size="10.00" fill="blue">2004-08-28T13:33</text>
</g>
<!-- https://commons.wikimedia.org/wiki/File:Kunsthaus_Bregenz.jpg&#45;&gt;Literal_4 -->
<g id="edge10" class="edge"><title>https://commons.wikimedia.org/wiki/File:Kunsthaus_Bregenz.jpg-&gt;Literal_4</title>
<a xlink:href="http://richard.fussenegger.info/FHS-SW-Blatt1-Richard-Fussenegger-2.rdf#date" xlink:title="http://richard.fussenegger.info/FHS-SW-Blatt1-Richard-Fussenegger-2.rdf#date">
<path fill="none" stroke="darkgreen" d="M438.745,-205.491C456.08,-204.836 473.346,-204.231 490,-203.711 777.139,-194.757 1119.72,-190.104 1261.97,-188.439"/>
<polygon fill="darkgreen" stroke="darkgreen" points="1262.31,-191.935 1272.27,-188.319 1262.23,-184.936 1262.31,-191.935"/>
</a>
<a xlink:href="http://richard.fussenegger.info/FHS-SW-Blatt1-Richard-Fussenegger-2.rdf#date" xlink:title="http://richard.fussenegger.info/FHS-SW-Blatt1-Richard-Fussenegger-2.rdf#date">
<text text-anchor="middle" x="740" y="-207.711" font-family="Courier,monospace" font-size="10.00" fill="red">http://richard.fussenegger.info/FHS-SW-Blatt1-Richard-Fussenegger-2.rdf#date</text>
</a>
</g>
<!-- http://sws.geonames.org/2781503 -->
<g id="node13" class="node"><title>http://sws.geonames.org/2781503</title>
<a xlink:href="http://sws.geonames.org/2781503" xlink:title="http://sws.geonames.org/2781503">
<ellipse fill="none" stroke="black" cx="1329" cy="-133.711" rx="124.964" ry="18"/>
<text text-anchor="middle" x="1329" y="-131.211" font-family="Courier,monospace" font-size="10.00" fill="blue">http://sws.geonames.org/2781503</text>
</a>
</g>
<!-- https://commons.wikimedia.org/wiki/File:Kunsthaus_Bregenz.jpg&#45;&gt;http://sws.geonames.org/2781503 -->
<g id="edge12" class="edge"><title>https://commons.wikimedia.org/wiki/File:Kunsthaus_Bregenz.jpg-&gt;http://sws.geonames.org/2781503</title>
<a xlink:href="http://richard.fussenegger.info/FHS-SW-Blatt1-Richard-Fussenegger-2.rdf#location" xlink:title="http://richard.fussenegger.info/FHS-SW-Blatt1-Richard-Fussenegger-2.rdf#location">
<path fill="none" stroke="darkgreen" d="M326.505,-198.039C374.858,-189.745 435.491,-180.319 490,-174.711 737.775,-149.222 1028.39,-139.494 1194.39,-135.842"/>
<polygon fill="darkgreen" stroke="darkgreen" points="1194.73,-139.336 1204.66,-135.621 1194.58,-132.338 1194.73,-139.336"/>
</a>
<a xlink:href="http://richard.fussenegger.info/FHS-SW-Blatt1-Richard-Fussenegger-2.rdf#location" xlink:title="http://richard.fussenegger.info/FHS-SW-Blatt1-Richard-Fussenegger-2.rdf#location">
<text text-anchor="middle" x="740" y="-178.711" font-family="Courier,monospace" font-size="10.00" fill="red">http://richard.fussenegger.info/FHS-SW-Blatt1-Richard-Fussenegger-2.rdf#location</text>
</a>
</g>
<!-- http://www.dbpedialite.org/things/3790493 -->
<g id="node15" class="node"><title>http://www.dbpedialite.org/things/3790493</title>
<a xlink:href="http://www.dbpedialite.org/things/3790493" xlink:title="http://www.dbpedialite.org/things/3790493">
<ellipse fill="none" stroke="black" cx="1329" cy="-79.7113" rx="161.899" ry="18"/>
<text text-anchor="middle" x="1329" y="-77.2113" font-family="Courier,monospace" font-size="10.00" fill="blue">http://www.dbpedialite.org/things/3790493</text>
</a>
</g>
<!-- https://commons.wikimedia.org/wiki/File:Kunsthaus_Bregenz.jpg&#45;&gt;http://www.dbpedialite.org/things/3790493 -->
<g id="edge14" class="edge"><title>https://commons.wikimedia.org/wiki/File:Kunsthaus_Bregenz.jpg-&gt;http://www.dbpedialite.org/things/3790493</title>
<a xlink:href="http://richard.fussenegger.info/FHS-SW-Blatt1-Richard-Fussenegger-2.rdf#camera" xlink:title="http://richard.fussenegger.info/FHS-SW-Blatt1-Richard-Fussenegger-2.rdf#camera">
<path fill="none" stroke="darkgreen" d="M275.035,-196.902C324.064,-175.473 411.319,-140.42 490,-124.711 720.014,-78.7898 992.085,-72.8024 1162.63,-74.7001"/>
<polygon fill="darkgreen" stroke="darkgreen" points="1162.66,-78.2006 1172.7,-74.8226 1162.75,-71.2011 1162.66,-78.2006"/>
</a>
<a xlink:href="http://richard.fussenegger.info/FHS-SW-Blatt1-Richard-Fussenegger-2.rdf#camera" xlink:title="http://richard.fussenegger.info/FHS-SW-Blatt1-Richard-Fussenegger-2.rdf#camera">
<text text-anchor="middle" x="740" y="-128.711" font-family="Courier,monospace" font-size="10.00" fill="red">http://richard.fussenegger.info/FHS-SW-Blatt1-Richard-Fussenegger-2.rdf#camera</text>
</a>
</g>
<!-- Literal_5 -->
<g id="node17" class="node"><title>Literal_5</title>
<polygon fill="none" stroke="black" points="1475,-43.7113 1183,-43.7113 1183,-7.71129 1475,-7.71129 1475,-43.7113"/>
<text text-anchor="middle" x="1329" y="-23.2113" font-family="Courier,monospace" font-size="10.00" fill="blue">Exposure time:1/500 sec (0.002);F-number:f/3.5</text>
</g>
<!-- https://commons.wikimedia.org/wiki/File:Kunsthaus_Bregenz.jpg&#45;&gt;Literal_5 -->
<g id="edge16" class="edge"><title>https://commons.wikimedia.org/wiki/File:Kunsthaus_Bregenz.jpg-&gt;Literal_5</title>
<a xlink:href="http://richard.fussenegger.info/FHS-SW-Blatt1-Richard-Fussenegger-2.rdf#details" xlink:title="http://richard.fussenegger.info/FHS-SW-Blatt1-Richard-Fussenegger-2.rdf#details">
<path fill="none" stroke="darkgreen" d="M256.894,-196.563C298.102,-162.055 394.191,-87.8292 490,-58.7113 719.568,11.0577 1000.77,4.75207 1172.3,-8.64502"/>
<polygon fill="darkgreen" stroke="darkgreen" points="1172.17,-12.1459 1182.42,-9.45354 1172.73,-5.16812 1172.17,-12.1459"/>
</a>
<a xlink:href="http://richard.fussenegger.info/FHS-SW-Blatt1-Richard-Fussenegger-2.rdf#details" xlink:title="http://richard.fussenegger.info/FHS-SW-Blatt1-Richard-Fussenegger-2.rdf#details">
<text text-anchor="middle" x="740" y="-62.7113" font-family="Courier,monospace" font-size="10.00" fill="red">http://richard.fussenegger.info/FHS-SW-Blatt1-Richard-Fussenegger-2.rdf#details</text>
</a>
</g>
</g>
</svg>
